X:17864
T:Trumpet Minuet,A,(Harmony). BC.49b
M:3/4
L:1/8
Q:120
S:Benjamin Cooke MS.circa 1770, F.Kidson Coll.
R:Minuet
O:England
A:x
Z:John Bagnal
K:D
z6 | D2 DDDD | F2 FDFA | d2 F2 A2 | d2 F2 A2 | d2 F2 A2 | d2 edcB | A6 |
